X:8091
T:John Blessing's Reel
C:John Blessing
S:Treoir, 1991
I:speed 300
M:C
K:D
B |: A2 AF GFED | FA A2 dBAG | FAAF GBdB | AFDF E2D2:|
f |: afdf gfef | afdf eB B2 | afdf gfef | abaf e2 dg |
afdf gfef | afdf eBBA | defg afbg | afdf e2d2:|


